X:361
T:Jack's Maggot
C:Henry Playford, 1703
S:Colin Hume's website,  colinhume.com  - chords can also be printed below the stave.
Q:1/2=120
M:2/2
L:1/4
K:D
P:A
|:c | "D"dD FA | "G"B/A/B/c/ "A7"de | "D"f/g/a "G"B/c/d | "Em7"e3/f/ "A7"ec |\
"D"dD FA | "G"B/c/d "A7"ca/g/ | "D"fd "A7"ec | "D"d2- d :|
P:B
|: f/g/ | "F#m"a f2 a | "Bm"f d2 e/f/ | "Em"g/f/e/d/ "E7"c d | "A7"e3 f/g/ |\
"D"af d f | "D"Ad FA | "G"d3/e/ "A7"e3/d/ | "D"d3 :|

